X: 1670
T: The Reconciliation
M:4/4
L:1/8
B:O'Neill's 1670
K:A
A2 c>Ae>Af>A | e>Af>Ae>cB>c | A2c>Ae>Af>A | e>cB>cA>FE>F |
| A2c>Ae>Af>A | e>Af>Ae>cB>c | A>BA>FE>cd>f | e>cB>cA2 :|
|: A2c>ea2 a>f | e>fe>dc>dB>c | A2c>ea2a>g | f>bb>a g>be>g |
| a>ga>ef>ae>c | d>Bc>AB>AF>G | A>BA>FE>cd>f | e>cB>cA2 :|


